public/assets/heat3.svg

<svg width="85" height="85" viewBox="0 0 85 85" fill="none" xmlns="http://www.w3.org/2000/svg">
<g clip-path="url(#clip0_37_312)">
<path d="M54.9971 84.8882C54.1668 85.3296 53.291 84.3737 53.7993 83.5826C56.5585 79.2883 59.1713 72.0622 55.0085 62.7559C48.0665 47.2369 43.8424 39.1991 43.8424 39.1991C43.8424 39.1991 41.5956 48.5791 35.505 56.9192C29.6432 64.9461 26.4347 75.0412 31.6072 83.4511C32.0926 84.2404 31.2367 85.1717 30.4118 84.7496C24.009 81.4743 16.8276 74.9044 16.0173 61.8305C15.7186 57.8355 16.1666 52.2424 18.4071 45.1845C21.2878 36.2392 24.8291 32.0652 26.8782 30.2727C27.4911 29.7364 28.4443 30.2117 28.394 31.0245C27.7969 40.6764 31.428 43.1257 33.4949 37.6059C34.3203 35.4011 34.8017 31.5878 34.8017 26.9439C34.8017 19.2127 37.0447 11.254 41.9899 4.7868C43.2758 3.10499 44.7806 1.53346 46.507 0.193318C47.132 -0.291961 48.0379 0.195818 47.9807 0.984986C47.601 6.2261 47.945 21.2468 61.1229 39.1919C73.0714 55.8378 68.4414 68.6219 66.7985 72.0844C63.6574 78.7176 59.276 82.613 54.9971 84.8882Z" fill="#009D8F"/>
</g>
<defs>
<clipPath id="clip0_37_312">
<rect width="85" height="85" fill="white" transform="matrix(-1 0 0 1 85 0)"/>
</clipPath>
</defs>
</svg>

<svg width="85" height="85" fill="none" xmlns="http://www.w3.org/2000/svg"><g clip-path="url(#a)"><path d="M54.997 84.888c-.83.442-1.706-.514-1.198-1.305 2.76-4.295 5.372-11.52 1.21-20.827-6.943-15.52-11.167-23.557-11.167-23.557s-2.246 9.38-8.337 17.72c-5.862 8.027-9.07 18.122-3.898 26.532.486.79-.37 1.72-1.195 1.299-6.403-3.276-13.584-9.846-14.395-22.92-.298-3.994.15-9.588 2.39-16.645 2.88-8.946 6.422-13.12 8.471-14.912.613-.537 1.566-.061 1.516.752-.597 9.651 3.034 12.1 5.1 6.58.826-2.204 1.308-6.017 1.308-10.661 0-7.731 2.243-15.69 7.188-22.157 1.286-1.682 2.79-3.254 4.517-4.594.625-.485 1.53.003 1.474.792-.38 5.241-.036 20.262 13.142 38.207 11.948 16.646 7.318 29.43 5.676 32.892-3.142 6.634-7.523 10.529-11.802 12.804z" fill="#009D8F"/></g><defs><clipPath id="a"><path fill="#fff" transform="matrix(-1 0 0 1 85 0)" d="M0 0h85v85H0z"/></clipPath></defs></svg>
